X: 294
T:Soldiers Dance
% Nottingham Music Database
S:Kevin Briggs, via EF
Y:AB
M:6/8
K:A
P:A
E|"A"A2A AGA|"E7"B2B e2c|"A"A2A AGA|"Bm"GBG "E7"EFG|
"A"A2A AGA|"E"B2B e2d|"F#m"cBA "E7"BAG|"A"A3 A2:|
P:B
c/2d/2|"A"e2e cde|"D"f2f f3|"E7"g2g efg|"A"ace "D"agf|
"A"efe cde|"D"fga agf|"A/e"edc "E7"BAG|"A"A3 A2:|


